!! 00010] TT[TB
!! Eigene Aufnahme
!!!OTL: Laoren de zhuyuan The favour (?) of the old man
!!!ARE: Neimeng
!! Ethnic Group: Menggu
!! MM, S. 317
!!!SCT: C0544
!!!YEM: Copyright 1995, estate of Helmut Schaffrath.
**kern
*ICvox
*Ivox
*M2/4
*k[]
*C:
{8e
8a
8e
8d
=1
8e
8d
8d
8e
=2
4a
4dd}
=3
{8e
8a
4e
=4
8e
8d
8d
8e
=5
2a}
=6
{4.d
8e
=7
4.a
8dd
=8
8c
4d
8e}
=9
{8g
8g
4a
=10
8a
8dd
8c
8c
=11
8d
4e
8c
=12
[2A
=13
2A]}
==
!!!AGN: NN
!! Saenger: Chao Lun Batou, der das Buch nur zum Nachschlagen
!!    benutzte und ansonsten auswendig sang. Da er aus dem Osten der
!!    Neimeng kommt, kennt er nicht so viele Lieder des Westens.
!!    Alle Lieder wurden mit erkaelteter, halber Stimme in meinem
!!    Zimmer gesungen. FOTO VORHANDEN (DIAS)  31.3.87
!!    Starke VARIANTE oder anderes Lied?
!!!ONB: ESAC (Essen Associative Code) Database: CHINA
!!!AMT: simple duple
!!!AIN: vox
!!!EED: Helmut Schaffrath
!!!EEV: 1.0
*-
!!!ONB: Tied note syntax fixed by Craig Sapp, 2004/05/03/
